nalufx-ui/ui/assets/cloudy.svg

<svg width="22" height="20" viewBox="0 0 22 20" fill="none" xmlns="http://www.w3.org/2000/svg">
<path d="M10.1748 3.82521V0.000213623H11.8248V3.82521H10.1748ZM16.65 6.52521L15.4746 5.32521L18.1998 2.62521L19.35 3.80001L16.65 6.52521ZM18.1746 11.825V10.175H21.9996V11.825H18.1746ZM18.1998 19.3502L15.4998 16.6502L16.6746 15.4748L19.3998 18.1748L18.1998 19.3502ZM5.3496 6.52521L2.6496 3.80001L3.825 2.62521L6.525 5.34981L5.3496 6.52521ZM4.9998 18.3248H9.4998C10.0166 18.3248 10.45 18.1498 10.8 17.7998C11.15 17.4498 11.325 17.0166 11.325 16.5002C11.325 16.0002 11.1542 15.5668 10.8126 15.2C10.4706 14.8332 10.0414 14.6498 9.525 14.6498H8.3748L7.8996 13.5752C7.6496 12.9916 7.2622 12.529 6.7374 12.1874C6.2122 11.8458 5.633 11.675 4.9998 11.675C4.0666 11.675 3.279 11.9958 2.637 12.6374C1.9954 13.279 1.6746 14.0666 1.6746 15.0002C1.6746 15.9166 1.9954 16.6998 2.637 17.3498C3.279 17.9998 4.0666 18.3248 4.9998 18.3248ZM4.9998 20C3.6166 20 2.4374 19.5124 1.4622 18.5372C0.4874 17.5624 0 16.3834 0 15.0002C0 13.6166 0.4874 12.4374 1.4622 11.4626C2.4374 10.4874 3.6166 9.99981 4.9998 9.99981C5.9666 9.99981 6.8542 10.2708 7.6626 10.8128C8.4706 11.3544 9.0664 12.0752 9.45 12.9752C10.45 12.9752 11.2874 13.3376 11.9622 14.0624C12.6374 14.7876 12.975 15.6584 12.975 16.6748C12.9082 17.6084 12.5456 18.396 11.8872 19.0376C11.2288 19.6792 10.433 20 9.4998 20H4.9998ZM12.975 16.6748C12.9082 16.3916 12.8456 16.1166 12.7872 15.8498C12.7288 15.5834 12.6664 15.3084 12.6 15.0248C13.4332 14.6916 14.0956 14.1624 14.5872 13.4372C15.0788 12.7124 15.3246 11.9 15.3246 11C15.3246 9.80001 14.9038 8.77921 14.0622 7.93761C13.2206 7.09601 12.1998 6.67521 10.9998 6.67521C9.9166 6.67521 8.9708 7.02101 8.1624 7.71261C7.354 8.40421 6.8748 9.27501 6.7248 10.325C6.4416 10.275 6.1542 10.225 5.8626 10.175C5.5706 10.125 5.283 10.0666 4.9998 9.99981C5.233 8.53341 5.9204 7.33341 7.062 6.39981C8.204 5.46661 9.5166 5.00001 10.9998 5.00001C12.6666 5.00001 14.0832 5.58341 15.2496 6.75021C16.4164 7.91661 16.9998 9.33321 16.9998 11C16.9998 12.3 16.629 13.4624 15.8874 14.4872C15.1458 15.5124 14.175 16.2416 12.975 16.6748Z" fill="#DEFB3A"/>
</svg>

<svg fill="none" height="20" viewBox="0 0 22 20" width="22" xmlns="http://www.w3.org/2000/svg"><path d="m10.1748 3.82521v-3.82499638h1.65v3.82499638zm6.4752 2.7-1.1754-1.2 2.7252-2.7 1.1502 1.1748zm1.5246 5.29979v-1.65h3.825v1.65zm.0252 7.5252-2.7-2.7 1.1748-1.1754 2.7252 2.7zm-12.8502-12.82499-2.7-2.7252 1.1754-1.1748 2.7 2.7246zm-.3498 11.79959h4.5c.5168 0 .9502-.175 1.3002-.525s.525-.7832.525-1.2996c0-.5-.1708-.9334-.5124-1.3002-.342-.3668-.7712-.5502-1.2876-.5502h-1.1502l-.4752-1.0746c-.25-.5836-.6374-1.0462-1.1622-1.3878-.5252-.3416-1.1044-.5124-1.7376-.5124-.9332 0-1.7208.3208-2.3628.9624-.6416.6416-.9624 1.4292-.9624 2.3628 0 .9164.3208 1.6996.9624 2.3496.642.65 1.4296.975 2.3628.975zm0 1.6752c-1.3832 0-2.5624-.4876-3.5376-1.4628-.9748-.9748-1.4622-2.1538-1.4622-3.537 0-1.3836.4874-2.5628 1.4622-3.5376.9752-.9752 2.1544-1.46279 3.5376-1.46279.9668 0 1.8544.27099 2.6628.81299.808.5416 1.4038 1.2624 1.7874 2.1624 1 0 1.8374.3624 2.5122 1.0872.6752.7252 1.0128 1.596 1.0128 2.6124-.0668.9336-.4294 1.7212-1.0878 2.3628s-1.4542.9624-2.3874.9624zm7.9752-3.3252c-.0668-.2832-.1294-.5582-.1878-.825-.0584-.2664-.1208-.5414-.1872-.825.8332-.3332 1.4956-.8624 1.9872-1.5876.4916-.7248.7374-1.5372.7374-2.4372 0-1.19999-.4208-2.22079-1.2624-3.06239s-1.8624-1.2624-3.0624-1.2624c-1.0832 0-2.029.3458-2.8374 1.0374s-1.2876 1.5624-1.4376 2.61239c-.2832-.05-.5706-.1-.8622-.15-.292-.05-.5796-.1084-.8628-.17519.2332-1.4664.9206-2.6664 2.0622-3.6 1.142-.9332 2.4546-1.3998 3.9378-1.3998 1.6668 0 3.0834.5834 4.2498 1.7502 1.1668 1.1664 1.7502 2.583 1.7502 4.24979 0 1.3-.3708 2.4624-1.1124 3.4872-.7416 1.0252-1.7124 1.7544-2.9124 2.1876z" fill="#defb3a"/></svg>
